X:18503
T:Walzer - Walzer/Waltz/Valse
B: "Das Burgenländische Notenbiachl, Die vierten 24", S.Gmasz, F.Pietsch, Eisenstadt 1986; 
S:Sammlung M.Stoisits
P:Stinatz
Z:abc transcription Simon Wascher
N:please mail errors to simon.wascher@chello.at
M:3/4
L:1/4
K:G
DEF|GA^A|Bdg|dB>B|cdf|edc|Bdg|d2D|DEF|GA^A|Bdg|dB>B|cdf|edc|B3:|
|:gd/d/d/d/|Bdg|fd/d/d|c3|
fd/d/d|cdf|g>gd|B3|
gd/d/d/d/|Bdg|fd/d/d|c3|
fd/d/d|cdf|g>gg|g3:|


